Origami/64x64/apps/standard-notes.svg

<svg width="64" height="64" version="1" xmlns="http://www.w3.org/2000/svg">
 <rect transform="matrix(0,-1,-1,0,0,0)" x="-61" y="-60" width="56" height="56" rx="2.8" ry="2.8" style="opacity:.2"/>
 <rect transform="matrix(0,-1,-1,0,0,0)" x="-60" y="-60" width="55" height="56" rx="2.8" ry="2.8" style="fill:#cccccc"/>
 <path d="m4 18v1h56v-1z" style="opacity:.2"/>
 <path d="M 6.8008,4 C 5.2496,4 4,5.25 4,6.8 V 18 H 60 V 6.8 C 60,5.25 58.75,4 57.2,4 Z" style="fill:#086cd6"/>
 <path d="m12 26v3h40v-3zm0 7v3h32v-3zm0 7v3h36v-3zm0 7v3h28v-3z" style="opacity:.2"/>
 <path d="m6.8008 4c-1.5512 0-2.8008 1.2508-2.8008 2.8008v1c0-1.55 1.2496-2.8008 2.8008-2.8008h50.3982c1.55 0 2.801 1.2508 2.801 2.8008v-1c0-1.55-1.251-2.8008-2.801-2.8008h-50.3982z" style="fill:#ffffff;opacity:.2"/>
</svg>

<svg xmlns="http://www.w3.org/2000/svg" width="64" height="64" version="1">
 <rect style="opacity:0.2" width="56" height="56" x="-61" y="-60" rx="2.8" ry="2.8" transform="matrix(0,-1,-1,0,0,0)"/>
 <rect style="fill:#cccccc" width="55" height="56" x="-60" y="-60" rx="2.8" ry="2.8" transform="matrix(0,-1,-1,0,0,0)"/>
 <path style="opacity:0.2" d="M 4,18 V 19 H 60 V 18 Z"/>
 <path style="fill:#086cd6" d="M 6.8008,4 C 5.2496,4 4,5.25 4,6.8 V 18 H 60 V 6.8 C 60,5.25 58.75,4 57.2,4 Z"/>
 <path style="opacity:0.2" d="M 12,26 V 29 H 52 V 26 Z M 12,33 V 36 H 44 V 33 Z M 12,40 V 43 H 48 V 40 Z M 12,47 V 50 H 40 V 47 Z"/>
 <path style="fill:#ffffff;opacity:0.2" d="M 6.8008 4 C 5.2496 4 4 5.2508 4 6.8008 L 4 7.8008 C 4 6.2508 5.2496 5 6.8008 5 L 57.199 5 C 58.749 5 60 6.2508 60 7.8008 L 60 6.8008 C 60 5.2508 58.749 4 57.199 4 L 6.8008 4 z"/>
</svg>
